apps/frontend/public/images/excited.svg

<svg fill="none" height="1062" viewBox="0 0 1063 1062" width="1063" xmlns="http://www.w3.org/2000/svg" xmlns:xlink="http://www.w3.org/1999/xlink"><filter id="a" color-interpolation-filters="sRGB" filterUnits="userSpaceOnUse" height="605.471" width="605.47" x="228.903" y="227.965"><feFlood flood-opacity="0" result="BackgroundImageFix"/><feBlend in="SourceGraphic" in2="BackgroundImageFix" mode="normal" result="shape"/><feGaussianBlur result="effect1_foregroundBlur_5520_39271" stdDeviation="3.95217"/></filter><filter id="b" color-interpolation-filters="sRGB" filterUnits="userSpaceOnUse" height="200.548" width="556.311" x="253.482" y="229.941"><feFlood flood-opacity="0" result="BackgroundImageFix"/><feBlend in="SourceGraphic" in2="BackgroundImageFix" mode="normal" result="shape"/><feGaussianBlur result="effect1_foregroundBlur_5520_39271" stdDeviation="2.96413"/></filter><filter id="c" color-interpolation-filters="sRGB" filterUnits="userSpaceOnUse" height="149.486" width="289.98" x="386.156" y="577.806"><feFlood flood-opacity="0" result="BackgroundImageFix"/><feColorMatrix in="SourceAlpha" result="hardAlpha" type="matrix" values="0 0 0 0 0 0 0 0 0 0 0 0 0 0 0 0 0 0 127 0"/><feOffset dy="4.94022"/><feGaussianBlur stdDeviation="2.96413"/><feComposite in2="hardAlpha" operator="out"/><feColorMatrix type="matrix" values="0 0 0 0 0.701843 0 0 0 0 0.689337 0 0 0 0 0.854415 0 0 0 0.25 0"/><feBlend in2="BackgroundImageFix" mode="normal" result="effect1_dropShadow_5520_39271"/><feColorMatrix in="SourceAlpha" result="hardAlpha" type="matrix" values="0 0 0 0 0 0 0 0 0 0 0 0 0 0 0 0 0 0 127 0"/><feOffset dy="-3.95217"/><feGaussianBlur stdDeviation="2.47011"/><feComposite in2="hardAlpha" operator="out"/><feColorMatrix type="matrix" values="0 0 0 0 0 0 0 0 0 0 0 0 0 0 0 0 0 0 0.13 0"/><feBlend in2="effect1_dropShadow_5520_39271" mode="normal" result="effect2_dropShadow_5520_39271"/><feBlend in="SourceGraphic" in2="effect2_dropShadow_5520_39271" mode="normal" result="shape"/><feGaussianBlur result="effect3_foregroundBlur_5520_39271" stdDeviation="1.48207"/></filter><filter id="d" color-interpolation-filters="sRGB" filterUnits="userSpaceOnUse" height="64.8941" width="167.102" x="448.086" y="654.497"><feFlood flood-opacity="0" result="BackgroundImageFix"/><feBlend in="SourceGraphic" in2="BackgroundImageFix" mode="normal" result="shape"/><feGaussianBlur result="effect1_foregroundBlur_5520_39271" stdDeviation="1.48207"/></filter><filter id="e" color-interpolation-filters="sRGB" filterUnits="userSpaceOnUse" height="74.1671" width="60.9844" x="416.626" y="583.734"><feFlood flood-opacity="0" result="BackgroundImageFix"/><feColorMatrix in="SourceAlpha" result="hardAlpha" type="matrix" values="0 0 0 0 0 0 0 0 0 0 0 0 0 0 0 0 0 0 127 0"/><feOffset dy="3.95217"/><feGaussianBlur stdDeviation="2.47011"/><feComposite in2="hardAlpha" operator="out"/><feColorMatrix type="matrix" values="0 0 0 0 0 0 0 0 0 0 0 0 0 0 0 0 0 0 0.16 0"/><feBlend in2="BackgroundImageFix" mode="normal" result="effect1_dropShadow_5520_39271"/><feBlend in="SourceGraphic" in2="effect1_dropShadow_5520_39271" mode="normal" result="shape"/><feColorMatrix in="SourceAlpha" result="hardAlpha" type="matrix" values="0 0 0 0 0 0 0 0 0 0 0 0 0 0 0 0 0 0 127 0"/><feOffset dy="4.94022"/><feGaussianBlur stdDeviation="3.45815"/><feComposite in2="hardAlpha" k2="-1" k3="1" operator="arithmetic"/><feColorMatrix type="matrix" values="0 0 0 0 0 0 0 0 0 0 0 0 0 0 0 0 0 0 0.25 0"/><feBlend in2="shape" mode="normal" result="effect2_innerShadow_5520_39271"/><feGaussianBlur result="effect3_foregroundBlur_5520_39271" stdDeviation="1.48207"/></filter><filter id="f" color-interpolation-filters="sRGB" filterUnits="userSpaceOnUse" height="74.2559" width="61.9672" x="581.732" y="583.734"><feFlood flood-opacity="0" result="BackgroundImageFix"/><feColorMatrix in="SourceAlpha" result="hardAlpha" type="matrix" values="0 0 0 0 0 0 0 0 0 0 0 0 0 0 0 0 0 0 127 0"/><feOffset dy="3.95217"/><feGaussianBlur stdDeviation="2.47011"/><feComposite in2="hardAlpha" operator="out"/><feColorMatrix type="matrix" values="0 0 0 0 0 0 0 0 0 0 0 0 0 0 0 0 0 0 0.16 0"/><feBlend in2="BackgroundImageFix" mode="normal" result="effect1_dropShadow_5520_39271"/><feBlend in="SourceGraphic" in2="effect1_dropShadow_5520_39271" mode="normal" result="shape"/><feColorMatrix in="SourceAlpha" result="hardAlpha" type="matrix" values="0 0 0 0 0 0 0 0 0 0 0 0 0 0 0 0 0 0 127 0"/><feOffset dy="4.94022"/><feGaussianBlur stdDeviation="3.45815"/><feComposite in2="hardAlpha" k2="-1" k3="1" operator="arithmetic"/><feColorMatrix type="matrix" values="0 0 0 0 0 0 0 0 0 0 0 0 0 0 0 0 0 0 0.25 0"/><feBlend in2="shape" mode="normal" result="effect2_innerShadow_5520_39271"/><feGaussianBlur result="effect3_foregroundBlur_5520_39271" stdDeviation="1.48207"/></filter><filter id="g" color-interpolation-filters="sRGB" filterUnits="userSpaceOnUse" height="89.4634" width="89.4637" x="384.208" y="456.978"><feFlood flood-opacity="0" result="BackgroundImageFix"/><feBlend in="SourceGraphic" in2="BackgroundImageFix" mode="normal" result="shape"/><feGaussianBlur result="effect1_foregroundBlur_5520_39271" stdDeviation="1.48207"/></filter><filter id="h" color-interpolation-filters="sRGB" filterUnits="userSpaceOnUse" height="27.5494" width="27.5492" x="403.863" y="475.656"><feFlood flood-opacity="0" result="BackgroundImageFix"/><feBlend in="SourceGraphic" in2="BackgroundImageFix" mode="normal" result="shape"/><feGaussianBlur result="effect1_foregroundBlur_5520_39271" stdDeviation="1.48207"/></filter><filter id="i" color-interpolation-filters="sRGB" filterUnits="userSpaceOnUse" height="89.4634" width="89.4637" x="583.709" y="456.978"><feFlood flood-opacity="0" result="BackgroundImageFix"/><feBlend in="SourceGraphic" in2="BackgroundImageFix" mode="normal" result="shape"/><feGaussianBlur result="effect1_foregroundBlur_5520_39271" stdDeviation="1.48207"/></filter><filter id="j" color-interpolation-filters="sRGB" filterUnits="userSpaceOnUse" height="27.5494" width="27.5492" x="603.364" y="475.656"><feFlood flood-opacity="0" result="BackgroundImageFix"/><feBlend in="SourceGraphic" in2="BackgroundImageFix" mode="normal" result="shape"/><feGaussianBlur result="effect1_foregroundBlur_5520_39271" stdDeviation="1.48207"/></filter><radialGradient id="k" cx="0" cy="0" gradientTransform="matrix(185.74342602 437.82414702 -437.82414702 185.74342602 406.335 334.146)" gradientUnits="userSpaceOnUse" r="1"><stop offset="0" stop-color="#b1ade7"/><stop offset=".165566" stop-color="#938ed7"/><stop offset=".657919" stop-color="#6c63d4"/><stop offset="1" stop-color="#372ea8"/></radialGradient><radialGradient id="l" cx="0" cy="0" gradientTransform="matrix(0 129.726 -156.069 0 530.654 586.698)" gradientUnits="userSpaceOnUse" r="1"><stop offset=".08" stop-color="#220084"/><stop offset=".394842" stop-color="#000352"/><stop offset="1" stop-color="#01001e"/></radialGradient><radialGradient id="m" cx="0" cy="0" gradientTransform="matrix(0 52.4799 -143.445 0 531.637 663.947)" gradientUnits="userSpaceOnUse" r="1"><stop offset="0" stop-color="#ff3412"/><stop offset="1" stop-color="#ce1e01"/></radialGradient><linearGradient id="n"><stop offset="0" stop-color="#fff"/><stop offset="1" stop-color="#e0e0e0"/></linearGradient><linearGradient id="o" gradientUnits="userSpaceOnUse" x1="447.118" x2="447.118" xlink:href="#n" y1="586.698" y2="652.544"/><linearGradient id="p" gradientUnits="userSpaceOnUse" x1="612.716" x2="612.716" xlink:href="#n" y1="586.698" y2="652.544"/><g filter="url(#a)"><path d="m531.638 825.531c162.831 0 294.831-132 294.831-294.831s-132-294.831-294.831-294.831c-162.83 0-294.83 132-294.83 294.831s132 294.831 294.83 294.831z" fill="url(#k)"/></g><g filter="url(#b)"><path d="m803.864 418.669c-26.831-33.391-76.92-55.86-134.237-55.86-60.696 0-113.22 25.141-138.716 61.752-25.536-36.611-78.06-61.752-138.756-61.752-56.296 0-105.599 21.644-132.745 54.092 22.47-53.773 60.384-99.674 108.946-131.897 48.562-32.224 105.59-49.323 163.872-49.133 58.282.189 115.198 17.657 163.55 50.196 48.351 32.538 85.966 78.684 108.086 132.602z" fill="#2b186d"/></g><g filter="url(#c)"><path d="m670.208 586.698c0 42.797-22.868 81.314-57.78 104.947-24.093 16.16-52.366 24.779-81.282 24.779s-57.19-8.619-81.282-24.779c-34.913-23.776-57.78-61.817-57.78-104.947z" fill="url(#l)"/></g><g filter="url(#d)"><path d="m612.224 691.629c-23.886 16.172-51.918 24.798-80.587 24.798-28.668 0-56.7-8.626-80.587-24.798 16.887-20.558 46.65-34.168 80.564-34.168s63.77 13.467 80.61 34.168z" fill="url(#m)"/></g><g filter="url(#e)"><path d="m421.566 586.698h51.104l-14.147 60.782c-.412 1.77-2.794 2.092-3.661.495z" fill="url(#o)"/></g><g filter="url(#f)"><path d="m638.759 586.698h-52.087l14.443 60.879c.417 1.757 2.777 2.081 3.652.501z" fill="url(#p)"/></g><g filter="url(#g)"><path d="m428.94 543.478c23.068 0 41.768-18.7 41.768-41.768s-18.7-41.768-41.768-41.768-41.768 18.7-41.768 41.768 18.7 41.768 41.768 41.768z" fill="#2e005b"/></g><g filter="url(#h)"><path d="m417.638 500.241c5.97 0 10.81-4.84 10.81-10.81 0-5.971-4.84-10.811-10.81-10.811-5.971 0-10.811 4.84-10.811 10.811 0 5.97 4.84 10.81 10.811 10.81z" fill="#fff"/></g><g filter="url(#i)"><path d="m628.441 543.478c23.067 0 41.767-18.7 41.767-41.768s-18.7-41.768-41.767-41.768c-23.068 0-41.768 18.7-41.768 41.768s18.7 41.768 41.768 41.768z" fill="#2e005b"/></g><g filter="url(#j)"><path d="m617.138 500.241c5.971 0 10.811-4.84 10.811-10.81 0-5.971-4.84-10.811-10.811-10.811-5.97 0-10.81 4.84-10.81 10.811 0 5.97 4.84 10.81 10.81 10.81z" fill="#fff"/></g></svg>

<svg width="1063" height="1062" viewBox="0 0 1063 1062" fill="none" xmlns="http://www.w3.org/2000/svg">
<g filter="url(#filter0_f_5520_39271)">
<path d="M531.638 825.531C694.469 825.531 826.469 693.531 826.469 530.7C826.469 367.869 694.469 235.869 531.638 235.869C368.808 235.869 236.808 367.869 236.808 530.7C236.808 693.531 368.808 825.531 531.638 825.531Z" fill="url(#paint0_radial_5520_39271)"/>
</g>
<g filter="url(#filter1_f_5520_39271)">
<path d="M803.864 418.669C777.033 385.278 726.944 362.809 669.627 362.809C608.931 362.809 556.407 387.95 530.911 424.561C505.375 387.95 452.851 362.809 392.155 362.809C335.859 362.809 286.556 384.453 259.41 416.901C281.88 363.128 319.794 317.227 368.356 285.004C416.918 252.78 473.946 235.681 532.228 235.871C590.51 236.06 647.426 253.528 695.778 286.067C744.129 318.605 781.744 364.751 803.864 418.669Z" fill="#2B186D"/>
</g>
<g filter="url(#filter2_ddf_5520_39271)">
<path d="M670.208 586.698C670.208 629.495 647.34 668.012 612.428 691.645C588.335 707.805 560.062 716.424 531.146 716.424C502.23 716.424 473.956 707.805 449.864 691.645C414.951 667.869 392.084 629.828 392.084 586.698H670.208Z" fill="url(#paint1_radial_5520_39271)"/>
</g>
<g filter="url(#filter3_f_5520_39271)">
<path d="M612.224 691.629C588.338 707.801 560.306 716.427 531.637 716.427C502.969 716.427 474.937 707.801 451.05 691.629C467.937 671.071 497.7 657.461 531.614 657.461C565.528 657.461 595.384 670.928 612.224 691.629Z" fill="url(#paint2_radial_5520_39271)"/>
</g>
<g filter="url(#filter4_dif_5520_39271)">
<path d="M421.566 586.698H472.67L458.523 647.48C458.111 649.25 455.729 649.572 454.862 647.975L421.566 586.698Z" fill="url(#paint3_linear_5520_39271)"/>
</g>
<g filter="url(#filter5_dif_5520_39271)">
<path d="M638.759 586.698H586.672L601.115 647.577C601.532 649.334 603.892 649.658 604.767 648.078L638.759 586.698Z" fill="url(#paint4_linear_5520_39271)"/>
</g>
<g filter="url(#filter6_f_5520_39271)">
<path d="M428.94 543.478C452.008 543.478 470.708 524.778 470.708 501.71C470.708 478.642 452.008 459.942 428.94 459.942C405.872 459.942 387.172 478.642 387.172 501.71C387.172 524.778 405.872 543.478 428.94 543.478Z" fill="#2E005B"/>
</g>
<g filter="url(#filter7_f_5520_39271)">
<path d="M417.638 500.241C423.608 500.241 428.448 495.401 428.448 489.431C428.448 483.46 423.608 478.62 417.638 478.62C411.667 478.62 406.827 483.46 406.827 489.431C406.827 495.401 411.667 500.241 417.638 500.241Z" fill="white"/>
</g>
<g filter="url(#filter8_f_5520_39271)">
<path d="M628.441 543.478C651.508 543.478 670.208 524.778 670.208 501.71C670.208 478.642 651.508 459.942 628.441 459.942C605.373 459.942 586.673 478.642 586.673 501.71C586.673 524.778 605.373 543.478 628.441 543.478Z" fill="#2E005B"/>
</g>
<g filter="url(#filter9_f_5520_39271)">
<path d="M617.138 500.241C623.109 500.241 627.949 495.401 627.949 489.431C627.949 483.46 623.109 478.62 617.138 478.62C611.168 478.62 606.328 483.46 606.328 489.431C606.328 495.401 611.168 500.241 617.138 500.241Z" fill="white"/>
</g>
<defs>
<filter id="filter0_f_5520_39271" x="228.903" y="227.965" width="605.47" height="605.471" filterUnits="userSpaceOnUse" color-interpolation-filters="sRGB">
<feFlood flood-opacity="0" result="BackgroundImageFix"/>
<feBlend mode="normal" in="SourceGraphic" in2="BackgroundImageFix" result="shape"/>
<feGaussianBlur stdDeviation="3.95217" result="effect1_foregroundBlur_5520_39271"/>
</filter>
<filter id="filter1_f_5520_39271" x="253.482" y="229.941" width="556.311" height="200.548" filterUnits="userSpaceOnUse" color-interpolation-filters="sRGB">
<feFlood flood-opacity="0" result="BackgroundImageFix"/>
<feBlend mode="normal" in="SourceGraphic" in2="BackgroundImageFix" result="shape"/>
<feGaussianBlur stdDeviation="2.96413" result="effect1_foregroundBlur_5520_39271"/>
</filter>
<filter id="filter2_ddf_5520_39271" x="386.156" y="577.806" width="289.98" height="149.486" filterUnits="userSpaceOnUse" color-interpolation-filters="sRGB">
<feFlood flood-opacity="0" result="BackgroundImageFix"/>
<feColorMatrix in="SourceAlpha" type="matrix" values="0 0 0 0 0 0 0 0 0 0 0 0 0 0 0 0 0 0 127 0" result="hardAlpha"/>
<feOffset dy="4.94022"/>
<feGaussianBlur stdDeviation="2.96413"/>
<feComposite in2="hardAlpha" operator="out"/>
<feColorMatrix type="matrix" values="0 0 0 0 0.701843 0 0 0 0 0.689337 0 0 0 0 0.854415 0 0 0 0.25 0"/>
<feBlend mode="normal" in2="BackgroundImageFix" result="effect1_dropShadow_5520_39271"/>
<feColorMatrix in="SourceAlpha" type="matrix" values="0 0 0 0 0 0 0 0 0 0 0 0 0 0 0 0 0 0 127 0" result="hardAlpha"/>
<feOffset dy="-3.95217"/>
<feGaussianBlur stdDeviation="2.47011"/>
<feComposite in2="hardAlpha" operator="out"/>
<feColorMatrix type="matrix" values="0 0 0 0 0 0 0 0 0 0 0 0 0 0 0 0 0 0 0.13 0"/>
<feBlend mode="normal" in2="effect1_dropShadow_5520_39271" result="effect2_dropShadow_5520_39271"/>
<feBlend mode="normal" in="SourceGraphic" in2="effect2_dropShadow_5520_39271" result="shape"/>
<feGaussianBlur stdDeviation="1.48207" result="effect3_foregroundBlur_5520_39271"/>
</filter>
<filter id="filter3_f_5520_39271" x="448.086" y="654.497" width="167.102" height="64.8941" filterUnits="userSpaceOnUse" color-interpolation-filters="sRGB">
<feFlood flood-opacity="0" result="BackgroundImageFix"/>
<feBlend mode="normal" in="SourceGraphic" in2="BackgroundImageFix" result="shape"/>
<feGaussianBlur stdDeviation="1.48207" result="effect1_foregroundBlur_5520_39271"/>
</filter>
<filter id="filter4_dif_5520_39271" x="416.626" y="583.734" width="60.9844" height="74.1671" filterUnits="userSpaceOnUse" color-interpolation-filters="sRGB">
<feFlood flood-opacity="0" result="BackgroundImageFix"/>
<feColorMatrix in="SourceAlpha" type="matrix" values="0 0 0 0 0 0 0 0 0 0 0 0 0 0 0 0 0 0 127 0" result="hardAlpha"/>
<feOffset dy="3.95217"/>
<feGaussianBlur stdDeviation="2.47011"/>
<feComposite in2="hardAlpha" operator="out"/>
<feColorMatrix type="matrix" values="0 0 0 0 0 0 0 0 0 0 0 0 0 0 0 0 0 0 0.16 0"/>
<feBlend mode="normal" in2="BackgroundImageFix" result="effect1_dropShadow_5520_39271"/>
<feBlend mode="normal" in="SourceGraphic" in2="effect1_dropShadow_5520_39271" result="shape"/>
<feColorMatrix in="SourceAlpha" type="matrix" values="0 0 0 0 0 0 0 0 0 0 0 0 0 0 0 0 0 0 127 0" result="hardAlpha"/>
<feOffset dy="4.94022"/>
<feGaussianBlur stdDeviation="3.45815"/>
<feComposite in2="hardAlpha" operator="arithmetic" k2="-1" k3="1"/>
<feColorMatrix type="matrix" values="0 0 0 0 0 0 0 0 0 0 0 0 0 0 0 0 0 0 0.25 0"/>
<feBlend mode="normal" in2="shape" result="effect2_innerShadow_5520_39271"/>
<feGaussianBlur stdDeviation="1.48207" result="effect3_foregroundBlur_5520_39271"/>
</filter>
<filter id="filter5_dif_5520_39271" x="581.732" y="583.734" width="61.9672" height="74.2559" filterUnits="userSpaceOnUse" color-interpolation-filters="sRGB">
<feFlood flood-opacity="0" result="BackgroundImageFix"/>
<feColorMatrix in="SourceAlpha" type="matrix" values="0 0 0 0 0 0 0 0 0 0 0 0 0 0 0 0 0 0 127 0" result="hardAlpha"/>
<feOffset dy="3.95217"/>
<feGaussianBlur stdDeviation="2.47011"/>
<feComposite in2="hardAlpha" operator="out"/>
<feColorMatrix type="matrix" values="0 0 0 0 0 0 0 0 0 0 0 0 0 0 0 0 0 0 0.16 0"/>
<feBlend mode="normal" in2="BackgroundImageFix" result="effect1_dropShadow_5520_39271"/>
<feBlend mode="normal" in="SourceGraphic" in2="effect1_dropShadow_5520_39271" result="shape"/>
<feColorMatrix in="SourceAlpha" type="matrix" values="0 0 0 0 0 0 0 0 0 0 0 0 0 0 0 0 0 0 127 0" result="hardAlpha"/>
<feOffset dy="4.94022"/>
<feGaussianBlur stdDeviation="3.45815"/>
<feComposite in2="hardAlpha" operator="arithmetic" k2="-1" k3="1"/>
<feColorMatrix type="matrix" values="0 0 0 0 0 0 0 0 0 0 0 0 0 0 0 0 0 0 0.25 0"/>
<feBlend mode="normal" in2="shape" result="effect2_innerShadow_5520_39271"/>
<feGaussianBlur stdDeviation="1.48207" result="effect3_foregroundBlur_5520_39271"/>
</filter>
<filter id="filter6_f_5520_39271" x="384.208" y="456.978" width="89.4637" height="89.4634" filterUnits="userSpaceOnUse" color-interpolation-filters="sRGB">
<feFlood flood-opacity="0" result="BackgroundImageFix"/>
<feBlend mode="normal" in="SourceGraphic" in2="BackgroundImageFix" result="shape"/>
<feGaussianBlur stdDeviation="1.48207" result="effect1_foregroundBlur_5520_39271"/>
</filter>
<filter id="filter7_f_5520_39271" x="403.863" y="475.656" width="27.5492" height="27.5494" filterUnits="userSpaceOnUse" color-interpolation-filters="sRGB">
<feFlood flood-opacity="0" result="BackgroundImageFix"/>
<feBlend mode="normal" in="SourceGraphic" in2="BackgroundImageFix" result="shape"/>
<feGaussianBlur stdDeviation="1.48207" result="effect1_foregroundBlur_5520_39271"/>
</filter>
<filter id="filter8_f_5520_39271" x="583.709" y="456.978" width="89.4637" height="89.4634" filterUnits="userSpaceOnUse" color-interpolation-filters="sRGB">
<feFlood flood-opacity="0" result="BackgroundImageFix"/>
<feBlend mode="normal" in="SourceGraphic" in2="BackgroundImageFix" result="shape"/>
<feGaussianBlur stdDeviation="1.48207" result="effect1_foregroundBlur_5520_39271"/>
</filter>
<filter id="filter9_f_5520_39271" x="603.364" y="475.656" width="27.5492" height="27.5494" filterUnits="userSpaceOnUse" color-interpolation-filters="sRGB">
<feFlood flood-opacity="0" result="BackgroundImageFix"/>
<feBlend mode="normal" in="SourceGraphic" in2="BackgroundImageFix" result="shape"/>
<feGaussianBlur stdDeviation="1.48207" result="effect1_foregroundBlur_5520_39271"/>
</filter>
<radialGradient id="paint0_radial_5520_39271" cx="0" cy="0" r="1" gradientUnits="userSpaceOnUse" gradientTransform="translate(406.335 334.146) rotate(67.0113) scale(475.595)">
<stop stop-color="#B1ADE7"/>
<stop offset="0.165566" stop-color="#938ED7"/>
<stop offset="0.657919" stop-color="#6C63D4"/>
<stop offset="1" stop-color="#372EA8"/>
</radialGradient>
<radialGradient id="paint1_radial_5520_39271" cx="0" cy="0" r="1" gradientUnits="userSpaceOnUse" gradientTransform="translate(530.654 586.698) rotate(90) scale(129.726 156.069)">
<stop offset="0.08" stop-color="#220084"/>
<stop offset="0.394842" stop-color="#000352"/>
<stop offset="1" stop-color="#01001E"/>
</radialGradient>
<radialGradient id="paint2_radial_5520_39271" cx="0" cy="0" r="1" gradientUnits="userSpaceOnUse" gradientTransform="translate(531.637 663.947) rotate(90) scale(52.4799 143.445)">
<stop stop-color="#FF3412"/>
<stop offset="1" stop-color="#CE1E01"/>
</radialGradient>
<linearGradient id="paint3_linear_5520_39271" x1="447.118" y1="586.698" x2="447.118" y2="652.544" gradientUnits="userSpaceOnUse">
<stop stop-color="white"/>
<stop offset="1" stop-color="#E0E0E0"/>
</linearGradient>
<linearGradient id="paint4_linear_5520_39271" x1="612.716" y1="586.698" x2="612.716" y2="652.544" gradientUnits="userSpaceOnUse">
<stop stop-color="white"/>
<stop offset="1" stop-color="#E0E0E0"/>
</linearGradient>
</defs>
</svg>
